X:1
T:Title
%%score { ( 1 4 ) | ( 2 3 ) }
L:1/8
M:4/4
K:F
V:1 treble nm="Grand Piano"
V:4 treble 
V:2 bass 
V:3 bass 
V:1
 z4 z2[Q:1/4=100] F2 | A3 G BAGF | G2 G2 G2 A2 | [EB]3 [EG] [Fc]B[FA]G |[M:3/4] A4 z2 |[M:1/4] F2 | %6
[M:4/4] A3 G BA[B,EG]F | .[G,CG]2 [=B,FG]2 [CEG]2 [CGB]2 | [CFA]2 [DGB]G F2 E2 |[M:3/4] F4 z2 | %10
[M:1/4] c2 |[M:4/4] c2 AB c2 A2 | [GB][FA][EG][FA] [GB]2 [EG]2 | A3 A cB[CA]G |[M:3/4] F4 E2 | %15
[M:1/4] F2 |[M:4/4] A3 G BA[B,EG]F | .[G,CG]2 [=B,FG]2 [CEG]2 [CGB]2 | [CFA]2 [DGB]G F2 E2 | %19
[M:3/4] F4 z2 |] %20
V:2
 z4 z2 [F,A,]2 | z4 .D2 [F,E]2 | [E,G,C]2 [D,F,=B,]2 [C,E,C]2 [C,F,C]2 | %3
 [C,G,]3 [C,B,] C,-[C,G,E] z E |[M:3/4] [F,CF]4 z2 |[M:1/4] [F,A,]2 | %6
[M:4/4] [F,CF]3 [F,B,F] DC z A, | z A, D,2 C,2 E,2 | F,2 z [B,D] [C,A,C]2 [C,G,C]2 | %9
[M:3/4] [F,A,C]4 z2 |[M:1/4] [F,A,C]2 |[M:4/4][K:treble] [F,A,F]2 C-[G,CE] [A,CF]2 [F,CF]2 | %12
 [C,C]2 [C,C]2 [C,C]2 [C,C]2 | [F,CF]3 [^F,A,_E] [G,D]2 z B, |[M:3/4] A,4 G,2 |[M:1/4] [F,A,]2 | %16
[M:4/4] [F,CF]3 [F,B,F] DC z A, | z A, D,2 C,2 E,2 | F,2 z [B,D] [C,A,C]2 [C,G,C]2 | %19
[M:3/4] [F,A,C]4 z2 |] %20
V:3
 x8 | [F,CF]3 [F,B,F] [F,F]-[F,CF]B,A, | x8 | z4 .A,2 [C,C]2 |[M:3/4] x6 |[M:1/4] x2 | %6
[M:4/4] z4 [F,F]2 F,2 | E,2 z2 z4 | z2 B,,2 z4 |[M:3/4] x6 |[M:1/4] x2 | %11
[M:4/4][K:treble] z2 .[F,F]2 z4 | x8 | z4 z2 B,,2 |[M:3/4] [C,C]6 |[M:1/4] x2 | %16
[M:4/4] z4 [F,F]2 F,2 | E,2 z2 z4 | z2 B,,2 z4 |[M:3/4] x6 |] %20
V:4
 x8 | x8 | x8 | x8 |[M:3/4] x6 |[M:1/4] x2 |[M:4/4] x8 | x8 | x8 |[M:3/4] x6 |[M:1/4] x2 | %11
[M:4/4] x8 | x8 | z4 z2 D2 |[M:3/4] x6 |[M:1/4] x2 |[M:4/4] x8 | x8 | x8 |[M:3/4] x6 |] %20

